X:142
T:Safely Landed
T:Fallain gun d\`ith thainig e
R:Slow Air
S:Simon Fraser Collection
N:No.93
O:Scottish
M:3/4
L:1/8
Q:1/4=120
K:D
F|A<d d3f|e>c d3F|(3Adf a3f|e2 d2 z2|
=c>d B3A|B3/2A/4B/4 d4|F3/2E/4F/4 B4|AF D2 z2:|
|:F3/2E/4F/4 A2 z2|(3FED B2 z2|(3AFA B2 z2|A>F D2 z2|
F3/2E/4F/4 A2 z2|(3FED B2 z2|(3AFA B2 z2|BA A4:|

